frontend/app/static/images/mercantec-logo.svg

<svg width="197" height="56" viewBox="0 0 197 56" xmlns="http://www.w3.org/2000/svg"><title>D5AC9F47-D032-4D48-9169-836669BE0718</title><path d="M.211 50.605c-.092.05-.211-.008-.211-.102V5.452c0-.096.122-.154.213-.101l9.43 7.164a.12.12 0 0 1 .063.102v31.04c0 .042-.024.08-.065.102l-9.43 6.846zm22.639 5.317c-.054.125-.267.091-.267-.043V4.602c0-.13.203-.168.264-.05l3.56 7.005a.107.107 0 0 1 .011.049v35.97a.104.104 0 0 1-.009.043l-3.559 8.303zm11.286-4.49l-4.49-7.035a.108.108 0 0 1-.018-.06V8.55c0-.018.005-.035.013-.051L34.131.07c.063-.117.263-.078.263.051v51.253c0 .124-.189.167-.258.059zM12.884 52.99c-.085.082-.24.03-.24-.081V3.213c0-.11.155-.163.24-.081l6.742 7.635a.11.11 0 0 1 .036.081v34.425c0 .03-.013.059-.036.081l-6.742 7.635zm31.887-2.55l-7.26-6.777a.116.116 0 0 1-.047-.09V12.637c0-.035.017-.068.047-.091l7.26-6.74c.09-.068.229-.012.229.092v44.45c0 .104-.14.159-.229.09zM58.258 19h4.126a.26.26 0 0 1 .23.132l5.325 9.783c.095.175.365.175.46-.002l5.275-9.78a.261.261 0 0 1 .23-.133h4.1c.142 0 .258.108.258.24v16.351c0 .134-.116.24-.258.24h-3.149c-.143 0-.258-.106-.258-.24V25.486c0-.254-.369-.334-.49-.107l-4.575 8.612a.262.262 0 0 1-.232.134h-2.312a.26.26 0 0 1-.231-.134l-4.602-8.617c-.122-.227-.49-.146-.49.108V35.59c0 .134-.115.24-.258.24h-3.149c-.143 0-.258-.106-.258-.24V19.24c0-.133.115-.241.258-.241m33.164 9.306c.151 0 .272-.122.257-.262-.08-.73-.365-1.323-.858-1.782-.55-.513-1.282-.77-2.194-.77-.86 0-1.579.253-2.155.757-.51.447-.855 1.036-1.035 1.765-.037.149.088.292.252.292h5.733zm2.277-3.728c1.162 1.203 1.742 2.878 1.742 5.026 0 .26-.004.48-.012.66-.005.13-.12.23-.257.23h-9.375c-.178 0-.3.163-.243.32a3.28 3.28 0 0 0 1.189 1.591c.636.457 1.402.685 2.297.685.654 0 1.281-.116 1.884-.348a4.979 4.979 0 0 0 1.447-.863.271.271 0 0 1 .357.009l1.74 1.64a.23.23 0 0 1 .002.336 7.08 7.08 0 0 1-2.397 1.523c-1.007.393-2.13.589-3.368.589-1.463 0-2.741-.273-3.834-.817-1.092-.545-1.935-1.315-2.53-2.308-.593-.995-.89-2.14-.89-3.44 0-1.314.301-2.472.904-3.474.602-1.001 1.445-1.779 2.53-2.332 1.083-.553 2.322-.83 3.716-.83 2.237 0 3.937.601 5.098 1.803zm10.435-1.177c.705-.38 1.517-.593 2.437-.64.148-.008.273.102.273.24v2.978c0 .136-.121.246-.267.24a8.97 8.97 0 0 0-.352-.005c-1.222 0-2.19.308-2.904.926-.714.617-1.071 1.438-1.071 2.464v5.987c0 .133-.116.24-.258.24h-3.46c-.142 0-.257-.107-.257-.24V23.136c0-.133.115-.24.258-.24h3.459c.142 0 .258.107.258.24v1.289c0 .23.312.328.463.145.4-.486.874-.875 1.42-1.17zm11.532 2.524c-.998 0-1.811.317-2.44.95-.628.634-.942 1.471-.942 2.513 0 1.042.31 1.887.93 2.536.619.65 1.41.974 2.374.974 1.352 0 2.38-.441 3.085-1.325a.27.27 0 0 1 .352-.056l2.32 1.467a.232.232 0 0 1 .07.332c-.574.817-1.35 1.455-2.33 1.915-1.057.497-2.292.745-3.703.745-1.394 0-2.624-.273-3.691-.817-1.068-.546-1.897-1.315-2.491-2.309-.594-.993-.89-2.14-.89-3.438 0-1.314.296-2.473.89-3.475.594-1.002 1.428-1.78 2.504-2.332 1.075-.553 2.318-.83 3.73-.83 1.324 0 2.503.237 3.535.71.952.436 1.728 1.038 2.33 1.808a.23.23 0 0 1-.058.338l-2.285 1.535a.27.27 0 0 1-.343-.035c-.771-.804-1.753-1.206-2.947-1.206zm15.914 6.877c.592-.363.952-.819 1.078-1.368a.222.222 0 0 0 .006-.054v-.886c0-.133-.116-.24-.258-.24h-2.865c-.775 0-1.347.116-1.717.348-.37.233-.554.605-.554 1.118 0 .497.193.894.58 1.19.387.297.916.445 1.588.445.826 0 1.54-.184 2.142-.553m1.11 2.79v-.66c0-.208-.268-.321-.432-.18a4.652 4.652 0 0 1-1.375.815c-.74.289-1.592.433-2.555.433-1.463 0-2.624-.372-3.485-1.118-.86-.746-1.29-1.72-1.29-2.922 0-1.218.46-2.167 1.38-2.849.92-.681 2.224-1.03 3.91-1.046h3.563c.142 0 .258-.107.258-.24 0-.69-.245-1.222-.736-1.6-.49-.376-1.209-.564-2.155-.564-1.22 0-2.517.336-3.89 1.01a.265.265 0 0 1-.354-.115l-1.022-2.102a.234.234 0 0 1 .122-.315 16.996 16.996 0 0 1 2.873-1.027c.963-.24 2.021-.36 3.175-.36 1.858 0 3.299.408 4.323 1.226 1.023.817 1.544 1.955 1.562 3.414l.025 8.199c0 .133-.116.24-.258.24h-3.38c-.144 0-.259-.107-.259-.24zm19.81-11.494c.92.897 1.381 2.1 1.381 3.606v7.888c0 .132-.115.24-.258.24h-3.459c-.142 0-.258-.108-.258-.24v-6.806c0-.817-.245-1.462-.735-1.935-.491-.473-1.158-.71-2-.71-.982.017-1.756.333-2.324.95-.568.618-.852 1.407-.852 2.369v6.132c0 .132-.116.24-.258.24h-3.459c-.142 0-.258-.108-.258-.24V23.136c0-.133.116-.241.258-.241h3.46c.141 0 .257.108.257.24v1.237c0 .228.309.326.461.147.981-1.15 2.428-1.74 4.34-1.768 1.549 0 2.784.45 3.704 1.347zm13.808 10.832a.232.232 0 0 1-.12.274 6.85 6.85 0 0 1-1.542.568 8.003 8.003 0 0 1-1.897.228c-1.29 0-2.34-.345-3.149-1.034-.81-.69-1.213-1.675-1.213-2.958v-5.746c0-.133-.116-.241-.258-.241h-1.42c-.143 0-.258-.107-.258-.24v-2.068c0-.133.115-.24.258-.24h1.42c.142 0 .258-.108.258-.241v-3.077c0-.133.115-.241.258-.241h3.433c.142 0 .258.108.258.24v3.078c0 .133.115.241.258.241h3.252c.143 0 .259.107.259.24v2.092c0 .132-.116.24-.259.24h-3.252c-.143 0-.258.108-.258.241v5.097c0 .995.422 1.49 1.265 1.49.509 0 1.064-.12 1.664-.363.145-.059.311.013.354.153l.689 2.267zm11.62-6.624c.151 0 .272-.122.257-.262-.08-.73-.365-1.323-.858-1.782-.55-.513-1.282-.77-2.194-.77-.86 0-1.579.253-2.155.757-.51.447-.855 1.036-1.035 1.765-.037.149.088.292.252.292h5.733zm2.277-3.728c1.162 1.203 1.742 2.878 1.742 5.026 0 .26-.004.48-.012.66-.005.13-.12.23-.257.23h-9.375c-.178 0-.3.163-.243.32a3.28 3.28 0 0 0 1.189 1.591c.636.457 1.402.685 2.297.685.654 0 1.281-.116 1.884-.348a4.986 4.986 0 0 0 1.447-.863.271.271 0 0 1 .357.009l1.74 1.64a.23.23 0 0 1 .002.336 7.08 7.08 0 0 1-2.397 1.523c-1.007.393-2.13.589-3.368.589-1.463 0-2.741-.273-3.834-.817-1.092-.545-1.935-1.315-2.53-2.308-.593-.995-.89-2.14-.89-3.44 0-1.314.301-2.472.904-3.474.602-1.001 1.445-1.779 2.53-2.332 1.083-.553 2.322-.83 3.716-.83 2.237 0 3.937.601 5.098 1.803zm11.003 1.347c-.998 0-1.811.317-2.44.95-.628.634-.942 1.471-.942 2.513 0 1.042.31 1.887.93 2.536.619.65 1.41.974 2.374.974 1.352 0 2.38-.441 3.085-1.325a.27.27 0 0 1 .352-.056l2.32 1.467a.232.232 0 0 1 .07.332c-.574.817-1.35 1.455-2.33 1.915-1.057.497-2.292.745-3.703.745-1.394 0-2.624-.273-3.691-.817-1.068-.546-1.897-1.315-2.491-2.309-.594-.993-.89-2.14-.89-3.438 0-1.314.296-2.473.89-3.475.594-1.002 1.428-1.78 2.504-2.332 1.075-.553 2.318-.83 3.73-.83 1.324 0 2.503.237 3.535.71.952.436 1.728 1.038 2.33 1.808a.23.23 0 0 1-.058.338l-2.285 1.535a.27.27 0 0 1-.343-.035c-.771-.804-1.753-1.206-2.947-1.206z" fill="#FFF" fill-rule="evenodd"/></svg>

<?xml version="1.0" encoding="utf-8"?>
<svg viewBox="0 0.0002 45 55.9995" width="45" height="55.9995" xmlns="http://www.w3.org/2000/svg">
  <path d="M 0.211 50.605 C 0.119 50.655 0 50.597 0 50.503 L 0 5.452 C 0 5.356 0.122 5.298 0.213 5.351 L 9.643 12.515 C 9.681 12.535 9.705 12.574 9.706 12.617 L 9.706 43.657 C 9.706 43.699 9.682 43.737 9.641 43.759 L 0.211 50.605 L 0.211 50.605 Z M 22.85 55.922 C 22.796 56.047 22.583 56.013 22.583 55.879 L 22.583 4.602 C 22.583 4.472 22.786 4.434 22.847 4.552 L 26.407 11.557 C 26.415 11.572 26.418 11.589 26.418 11.606 L 26.418 47.576 C 26.418 47.591 26.415 47.605 26.409 47.619 L 22.85 55.922 L 22.85 55.922 Z M 34.136 51.432 L 29.646 44.397 C 29.634 44.379 29.628 44.358 29.628 44.337 L 29.628 8.55 C 29.628 8.532 29.633 8.515 29.641 8.499 L 34.131 0.07 C 34.194 -0.047 34.394 -0.008 34.394 0.121 L 34.394 51.374 C 34.394 51.498 34.205 51.541 34.136 51.433 L 34.136 51.432 Z M 12.884 52.99 C 12.799 53.072 12.644 53.02 12.644 52.909 L 12.644 3.213 C 12.644 3.103 12.799 3.05 12.884 3.132 L 19.626 10.767 C 19.649 10.788 19.662 10.817 19.662 10.848 L 19.662 45.273 C 19.662 45.303 19.649 45.332 19.626 45.354 L 12.884 52.989 L 12.884 52.99 Z M 44.771 50.44 L 37.511 43.663 C 37.482 43.642 37.465 43.609 37.464 43.573 L 37.464 12.637 C 37.464 12.602 37.481 12.569 37.511 12.546 L 44.771 5.806 C 44.861 5.738 45 5.794 45 5.898 L 45 50.348 C 45 50.452 44.86 50.507 44.771 50.438 L 44.771 50.44 Z" fill="#FFF" fill-rule="evenodd" transform="matrix(1, 0, 0, 1, 8.881784197001252e-16, 8.881784197001252e-16)"/>
</svg>
